X:150
T:Shiny Stockings
C:F. Foster
N:TablEdited by Jim Nikora
L:1/8
Q:1/4=180
M:4/4
K:Ab
z4 z"Am7"=B3 |: "Bbm7"c4 Bc2e | "Eb7"zc3 B2 c2 | "Bbm7"F2 B2 cB2c | "E7"z4 z=A3 | 
"Ab6"B4 AB2e | "Db7"zB3 A2 B2 | "Ab6"E2 A2 BA2B | "Bdim7"z4 z=A3 | "Bbm7"A4 FA ce | 
"Eb7"z4 z"Dbm7"=B3 | "Cm7"B4 GB =df |1 "F7"z6 =dc | "Dm7"z4 =Ac =eg | "G7"z4 z=e3 | 
"C6"c7/1_g | "Cdim7"z_g f2 "F7b9"ed3 :|2 "F7"z4 zg3 | "Bbm7"a2 f2 ed2c | zA3 c"Eb7"c2A | 
"Ab6"z8 | "Ab6"z8 | 


